X:1
T:Jack Maguire's
R:Reel
S:Caroline Chevalier circa 2001
S:Jaouen Le Goic 2009
Z:Gwenael Lambrouin 24/Jan/2004
M:2/2
L:1/8
Q:1/4=120
K:D
%|: DFFF DGGG | DFAF EGFE | DFFF ABde | fdAG [1 FAEF :| [2 FDD2 ||
% abc2ly ne comprend pas la notation [1 [2 ...
|: DFFF DGGG | DFAF EGFE | DFFF ABde |1 fdAG FAEF :|2 fdAG FDD2 ||
|  fgaf g2ag | fgaf gfeg | fgaf g2ag | fdAG FDD2 |
|  fAdf g2eg | fgaf gfeg | fdAF GBeg | fdAF GAEF ||   